X:42
T:And thou were mine only Dear
M:6/8
L:1/8
B:Thompson's Compleat Collection of 200 Favourite Country Dances, vol. 1 (London, 1757)
Z:Transcribed and edited by Fynnian Titford-Mock, 2007
Z:abc's:AK/Fiddler's Companion
K:C
ge/f/g ceg|a3 g3|fef dgf|egB c3|ge/f/g ceg|a3 g2 (a/b/4c'/4)|bag "tr"a3|(g3 g3):|
|:ge/f/g ceg|a/g/f/e f3|fd/e/f Bdf|gf/e/d e2g|a2f g2e|f2d e2a|gfe [G3d3]|"tr"[E3c3] [E3c3]:|

